X: 1
T: Parnells March
M: 12/8
L: 1/8
N: more or less as played in north Kerry
Z: lesl, adapted PdG
K: G Major
|: d2 c |
BGd BGD d3 d2 c | BGD B2 c ded d2 c | BcB BGd edc BAG | ABA d^cd Ad^c c2 =c |
BGD BGD ded d2 B | c2 B c2 e ~g3 gfe | d2 B GAB c2 A FGA | {B}A3 G2 F G3 :|
|: g2 f |
e3 c2 B c2 e gfe | d3 ded B3 B2 c | d3 d^cd ed=c BAG | ABA d^cd Ad^c d2 =c |
BGD BGD ded dcB | ~c2 B c2 e ~g3 gfe | d2 B GAB c2 A FGA | {B}A2 G G2 F G3 :|
